src/lib/packages/icons/src/assets/line/star.svg

<svg width="24" height="24" viewBox="0 0 24 24" fill="none" xmlns="http://www.w3.org/2000/svg">
<path d="M16.8541 21.75C16.5651 21.75 16.275 21.681 16.006 21.54L12.1181 19.505C12.0441 19.466 11.956 19.466 11.882 19.505L7.997 21.538C7.378 21.862 6.6421 21.808 6.0761 21.396C5.5131 20.985 5.23508 20.304 5.35308 19.617L6.09405 15.316C6.10805 15.235 6.081 15.153 6.023 15.096L2.78203 11.95C2.30103 11.483 2.13009 10.796 2.33709 10.157C2.54409 9.51798 3.08601 9.06099 3.75201 8.96399L8.23406 8.31598C8.31606 8.30398 8.38605 8.25299 8.42205 8.17999L10.365 4.26202C10.675 3.63702 11.3011 3.24902 11.9991 3.24902C12.6971 3.24902 13.3231 3.63702 13.6331 4.26202L15.575 8.17902C15.612 8.25302 15.6821 8.30398 15.7641 8.31598L20.246 8.96399C20.912 9.05999 21.4541 9.51698 21.6611 10.157C21.8681 10.796 21.697 11.483 21.216 11.95L17.976 15.095C17.916 15.153 17.8901 15.235 17.9041 15.316L18.6451 19.619C18.7631 20.305 18.487 20.986 17.923 21.396C17.605 21.631 17.2301 21.75 16.8541 21.75ZM12.0001 17.976C12.2791 17.976 12.559 18.042 12.813 18.175L16.7011 20.21C16.8561 20.292 16.982 20.229 17.042 20.185C17.102 20.142 17.197 20.043 17.168 19.875L16.4271 15.571C16.3291 15.001 16.519 14.421 16.934 14.019L20.173 10.875C20.27 10.781 20.254 10.675 20.236 10.621C20.218 10.566 20.168 10.47 20.033 10.45L15.5511 9.802C14.9801 9.72 14.4871 9.36201 14.2321 8.84601L12.2911 4.92999C12.2141 4.77399 12.076 4.75098 12.001 4.75098C11.926 4.75098 11.7881 4.77399 11.7111 4.92999L9.7691 8.84698C9.5151 9.36198 9.0221 9.72 8.4511 9.802L3.96905 10.45C3.83405 10.47 3.78304 10.565 3.76604 10.621C3.74804 10.676 3.73303 10.781 3.82903 10.875L7.06902 14.02C7.48302 14.421 7.673 15.001 7.575 15.571L6.83404 19.872C6.80504 20.041 6.90111 20.14 6.96111 20.184C7.02311 20.228 7.14501 20.29 7.30401 20.209L11.189 18.176C11.441 18.043 11.7211 17.976 12.0001 17.976Z" fill="currentColor"/>
</svg>

<svg xmlns="http://www.w3.org/2000/svg" width="24" height="24" fill="none"><path fill="currentColor" d="M16.854 21.75c-.289 0-.579-.069-.848-.21l-3.888-2.035a.253.253 0 0 0-.236 0l-3.885 2.033a1.814 1.814 0 0 1-1.92-.142 1.81 1.81 0 0 1-.724-1.779l.741-4.301a.249.249 0 0 0-.071-.22L2.782 11.95a1.737 1.737 0 0 1-.445-1.793 1.74 1.74 0 0 1 1.415-1.193l4.482-.648a.25.25 0 0 0 .188-.136l1.943-3.918a1.813 1.813 0 0 1 1.634-1.013c.698 0 1.324.388 1.634 1.013l1.942 3.917a.252.252 0 0 0 .19.137l4.481.648a1.738 1.738 0 0 1 1.415 1.193 1.737 1.737 0 0 1-.445 1.793l-3.24 3.145a.247.247 0 0 0-.072.221l.741 4.303a1.805 1.805 0 0 1-.722 1.777 1.796 1.796 0 0 1-1.069.354ZM12 17.976c.28 0 .559.066.813.199l3.888 2.035a.31.31 0 0 0 .341-.025.304.304 0 0 0 .126-.31l-.74-4.304c-.099-.57.091-1.15.506-1.552l3.239-3.144a.236.236 0 0 0 .063-.254.242.242 0 0 0-.203-.171l-4.482-.648a1.748 1.748 0 0 1-1.319-.956l-1.94-3.916A.31.31 0 0 0 12 4.751a.31.31 0 0 0-.29.179L9.77 8.847a1.746 1.746 0 0 1-1.318.955l-4.482.648a.24.24 0 0 0-.203.171.238.238 0 0 0 .063.254l3.24 3.145c.414.401.604.981.506 1.551l-.741 4.301a.308.308 0 0 0 .127.312.315.315 0 0 0 .343.025l3.885-2.033c.252-.133.532-.2.811-.2Z"/></svg>
